static/assets/template/assets/img/icons/essential/detailed/Microphone.svg

<svg height="153" viewBox="0 0 101 153" width="101" xmlns="http://www.w3.org/2000/svg"><g fill="none" fill-rule="evenodd" transform="translate(1 1)"><path d="m29.7 6.6c5.6-3.8 12.3-6.1 19.6-6.1 19.1 0 34.5 15.5 34.5 34.5v42.9c0 19.1-15.5 34.5-34.5 34.5-19.1 0-34.5-15.5-34.5-34.5v-42.9c0-11.7 5.9-22.2 14.9-28.4" fill-rule="nonzero"/><path d="m51.1 112.5h-.4c-18.1 0-32.7-14.7-32.7-32.7v-40.5c0-18.1 14.7-32.7 32.7-32.7h.4c18.1 0 32.7 14.7 32.7 32.7v40.5c0 18.1-14.6 32.7-32.7 32.7z" fill-rule="nonzero"/><g stroke-linecap="round" stroke-linejoin="round" stroke-width="3.2"><path d="m40.9 1.6c2.7-.7 5.5-1 8.4-1 19.1 0 34.5 15.5 34.5 34.5v42.9c0 19.1-15.5 34.5-34.5 34.5-19.1 0-34.5-15.5-34.5-34.5v-42.9c0-10.1 4.3-19.2 11.3-25.5"/><path d="m30.5 6.1c.2-.2.5-.3.8-.5"/><path d="m97.7 57.2v21.9c0 26.7-21.7 48.4-48.4 48.4s-48.4-21.7-48.4-48.4v-21.9"/><path d="m49.3 128.7v20.4"/><path d="m25.7 149.6h47.1"/><g transform="translate(15 38)"><path d="m.5 0h14.4"/><path d="m13.7 18.5h1.2"/><path d="m.5 18.5h7.8"/><path d="m.5 37h14.4"/></g><g transform="translate(69 38)"><path d="m.1 0h14.4"/><path d="m.1 18.5h14.4"/><path d="m.1 37h7.6"/></g></g></g></svg>

<?xml version="1.0" encoding="UTF-8"?>
<svg width="101px" height="153px" viewBox="0 0 101 153" version="1.1" xmlns="http://www.w3.org/2000/svg" xmlns:xlink="http://www.w3.org/1999/xlink">
    <!-- Generator: Sketch 51.2 (57519) - http://www.bohemiancoding.com/sketch -->
    <title>Microphone</title>
    <desc>Created with Sketch.</desc>
    <defs></defs>
    <g id="Page-1" stroke="none" stroke-width="1" fill="none" fill-rule="evenodd">
        <g id="Microphone" transform="translate(1.000000, 1.000000)">
            <path d="M29.7,6.6 C35.3,2.8 42,0.5 49.3,0.5 C68.4,0.5 83.8,16 83.8,35 L83.8,77.9 C83.8,97 68.3,112.4 49.3,112.4 C30.2,112.4 14.8,96.9 14.8,77.9 L14.8,35 C14.8,23.3 20.7,12.8 29.7,6.6" id="Shape" class="fill-neutral" fill-rule="nonzero"></path>
            <path d="M51.1,112.5 L50.7,112.5 C32.6,112.5 18,97.8 18,79.8 L18,39.3 C18,21.2 32.7,6.6 50.7,6.6 L51.1,6.6 C69.2,6.6 83.8,21.3 83.8,39.3 L83.8,79.8 C83.8,97.9 69.2,112.5 51.1,112.5 Z" id="Shape" class="fill-primary-100" fill-rule="nonzero"></path>
            <path d="M40.9,1.6 C43.6,0.9 46.4,0.6 49.3,0.6 C68.4,0.6 83.8,16.1 83.8,35.1 L83.8,78 C83.8,97.1 68.3,112.5 49.3,112.5 C30.2,112.5 14.8,97 14.8,78 L14.8,35.1 C14.8,25 19.1,15.9 26.1,9.6" id="Shape" class="stroke-primary" stroke-width="3.2" stroke-linecap="round" stroke-linejoin="round"></path>
            <path d="M30.5,6.1 C30.7,5.9 31,5.8 31.3,5.6" id="Shape" class="stroke-primary" stroke-width="3.2" stroke-linecap="round" stroke-linejoin="round"></path>
            <path d="M97.7,57.2 L97.7,79.1 C97.7,105.8 76,127.5 49.3,127.5 C22.6,127.5 0.9,105.8 0.9,79.1 L0.9,57.2" id="Shape" class="stroke-primary" stroke-width="3.2" stroke-linecap="round" stroke-linejoin="round"></path>
            <path d="M49.3,128.7 L49.3,149.1" id="Shape" class="stroke-primary" stroke-width="3.2" stroke-linecap="round" stroke-linejoin="round"></path>
            <path d="M25.7,149.6 L72.8,149.6" id="Shape" class="stroke-primary" stroke-width="3.2" stroke-linecap="round" stroke-linejoin="round"></path>
            <g id="Group" transform="translate(15.000000, 38.000000)" class="stroke-primary" stroke-linecap="round" stroke-linejoin="round" stroke-width="3.2">
                <path d="M0.5,0 L14.9,0" id="Shape"></path>
                <path d="M13.7,18.5 L14.9,18.5" id="Shape"></path>
                <path d="M0.5,18.5 L8.3,18.5" id="Shape"></path>
                <path d="M0.5,37 L14.9,37" id="Shape"></path>
            </g>
            <g id="Group" transform="translate(69.000000, 38.000000)" class="stroke-primary" stroke-linecap="round" stroke-linejoin="round" stroke-width="3.2">
                <path d="M0.1,0 L14.5,0" id="Shape"></path>
                <path d="M0.1,18.5 L14.5,18.5" id="Shape"></path>
                <path d="M0.1,37 L7.7,37" id="Shape"></path>
            </g>
        </g>
    </g>
</svg>
